X: 509
T:The Larry Hates Mailing List Manager Software Jig
M:6/8
L:1/8
R:Jig
C:Steve Mansfield (start of B part Larry Owens)
N:A tune in honour of Larry Owen's continuing valiant
N:efforts in keeping the woodenflute mailing list running ...
N:Posted to the woodenflute mailing list April 2002
Z:Steve Mansfield
K:Bm
BgB fBe | dcA B2 c | dec dBc | ded cBA | BgB fBe | dcA B2 c |
dec dBA |1 (G3 G3) :|2 GAB def |: ~g3 fed | gBd ecA | BAB dcA |
BAB def | ~g3 fed | gBd ecA | dec dBA |1 GAB def :|2 (G3 G3) ||


